src/images/viber-icon.svg

<svg fill="none" version="1.1" viewBox="0 0 31 31" width="31" height="31" xmlns="http://www.w3.org/2000/svg">
 <path d="m18.6 0h-6.2008c-5.9835 0-10.851 4.8678-10.851 10.851v4.6506c0 4.2008 2.4227 8.013 6.2008 9.8062v5.179c0 0.4497 0.56254 0.6848 0.88211 0.3654l4.4992-4.4992h5.4701c5.9835 0 10.851-4.8679 10.851-10.851v-4.6506c0-5.9836-4.8679-10.851-10.851-10.851z" fill="#665CAC"/>
 <path d="m9.2992 25.308c-3.7781-1.7933-6.2008-5.6055-6.2008-9.8063v-4.6506c0-5.9834 4.8679-10.851 10.851-10.851h-1.5502c-5.9835 0-10.851 4.8678-10.851 10.851v4.6506c0 4.2008 2.4227 8.013 6.2008 9.8062v5.179c0 0.4497 0.56254 0.6848 0.88211 0.3654l0.66808-0.668v-4.8764z" fill="#523494"/>
 <path d="m23.301 19.26-0.4645-2.5167c-0.0385-0.2079-0.1995-0.3714-0.4068-0.4129l-3.6539-0.7307c-0.1697-0.0338-0.3445 0.0192-0.4668 0.1413l-1.4844 1.4845c-2.5011-1.1207-3.8892-2.5118-5.1105-5.1202l1.4796-1.4796c0.1221-0.1222 0.1752-0.2974 0.1413-0.4668l-0.7307-3.6539c-0.0415-0.20725-0.205-0.36843-0.4129-0.40681l-2.5167-0.46452c-0.06891-0.01265-0.13987-0.01132-0.20829 0.00424-0.6645 0.15094-1.2708 0.48577-1.7534 0.96851-0.83567 0.83566-1.1551 2.0551-0.92352 3.5264 0.38865 2.4707 1.5991 5.909 3.8324 8.1513l0.0305 0.0302c2.2405 2.2317 5.6789 3.4423 8.1497 3.831 0.3113 0.0491 0.611 0.0733 0.8985 0.0733 1.0714 0 1.969-0.3379 2.628-0.9969 0.4827-0.4826 0.8176-1.089 0.9685-1.7533 0.0153-0.0685 0.0168-0.1394 4e-3 -0.2084z" fill="#fff"/>
 <path d="m20.675 21.244c-0.2874 0-0.5872-0.0242-0.8985-0.0733-2.4707-0.3887-5.9091-1.5993-8.1497-3.831l-0.0305-0.0302c-2.2332-2.2423-3.4437-5.6806-3.8324-8.1513-0.18703-1.1887-0.0141-2.2129 0.49988-3.0032-0.19684 0.13132-0.38157 0.28196-0.5508 0.45119-0.83566 0.83567-1.155 2.0551-0.92352 3.5265 0.38865 2.4706 1.5991 5.909 3.8324 8.1512l0.0305 0.0303c2.2405 2.2317 5.6789 3.4423 8.1497 3.831 0.3112 0.049 0.611 0.0733 0.8985 0.0733 1.0714 0 1.969-0.3379 2.628-0.9969 0.1692-0.1692 0.3198-0.3539 0.4512-0.5508-0.5835 0.3796-1.2944 0.5732-2.1048 0.5732z" fill="#E5E5E5"/>
 <path d="m16.533 4.6504c-0.1847 0-0.37059 0.0075044-0.55469 0.021484-0.2846 0.02156-0.49816 0.27018-0.47656 0.55469 0.0214 0.28457 0.27089 0.49812 0.55469 0.47656 0.1582-0.01205 0.31776-0.019531 0.47656-0.019531 3.4191 0 6.2012 2.782 6.2012 6.2012 0 0.4837-0.056016 0.96564-0.16602 1.4316-0.0632 0.267 0.10249 0.54469 0.36719 0.61719 0.2786 0.0763 0.57227-0.097907 0.63867-0.37891 0.1285-0.5438 0.19336-1.1062 0.19336-1.6699 0-3.989-3.2454-7.2344-7.2344-7.2344zm0 2.0664c-0.1912 0-0.38287 0.01036-0.57226 0.03125-0.2836 0.03131-0.48833 0.28659-0.45703 0.57031 0.0313 0.28373 0.28711 0.48785 0.57031 0.45703 0.1519-0.01677 0.30548-0.025391 0.45898-0.025391 2.2794 0 4.1348 1.8553 4.1348 4.1348 0 0.1535-0.008591 0.30904-0.025391 0.46094-0.0309 0.2798 0.17713 0.53951 0.45703 0.57031 0.2799 0.0308 0.53931-0.17713 0.57031-0.45703 0.0209-0.1894 0.03125-0.38302 0.03125-0.57422 0-2.8492-2.3188-5.168-5.168-5.168zm0 2.0684c-0.2853 0-0.51562 0.23027-0.51562 0.51562 0 0.28536 0.23032 0.51758 0.51562 0.51758 1.1398 0 2.0664 0.92671 2.0664 2.0664 0 0.2815 0.23608 0.51758 0.51758 0.51758 0.2815 0 0.51758-0.23608 0.51758-0.51758 1e-4 -1.7096-1.392-3.0996-3.1016-3.0996z" fill="#fff"/>
</svg>

<svg width="31" height="31" viewBox="0 0 31 31" fill="none" xmlns="http://www.w3.org/2000/svg">
<g clip-path="url(#clip0_10_1109)">
<path d="M18.6004 0H12.3996C6.4161 0 1.54826 4.86785 1.54826 10.8514V15.502C1.54826 19.7028 3.97098 23.515 7.74904 25.3082V30.4872C7.74904 30.9369 8.31158 31.172 8.63115 30.8526L13.1303 26.3534H18.6004C24.5839 26.3534 29.4518 21.4855 29.4518 15.502V10.8514C29.4518 4.86785 24.5839 0 18.6004 0Z" fill="#665CAC"/>
<path d="M9.29923 25.3082C5.52116 23.5149 3.09844 19.7027 3.09844 15.5019V10.8513C3.09844 4.86785 7.96635 0 13.9498 0H12.3996C6.4161 0 1.54826 4.86785 1.54826 10.8514V15.502C1.54826 19.7028 3.97098 23.515 7.74904 25.3082V30.4872C7.74904 30.9369 8.31158 31.172 8.63115 30.8526L9.29923 30.1846V25.3082Z" fill="#523494"/>
<path d="M23.3014 19.26L22.8369 16.7433C22.7984 16.5354 22.6374 16.3719 22.4301 16.3304L18.7762 15.5997C18.6065 15.5659 18.4317 15.6189 18.3094 15.741L16.825 17.2255C14.3239 16.1048 12.9358 14.7137 11.7145 12.1053L13.1941 10.6257C13.3162 10.5035 13.3693 10.3283 13.3354 10.1589L12.6047 6.50497C12.5632 6.29772 12.3997 6.13654 12.1918 6.09816L9.67507 5.63364C9.60616 5.62099 9.5352 5.62232 9.46678 5.63788C8.80228 5.78882 8.19597 6.12365 7.71335 6.60639C6.87768 7.44205 6.55829 8.66147 6.78983 10.1328C7.17848 12.6035 8.38893 16.0418 10.6222 18.2841L10.6527 18.3143C12.8932 20.546 16.3316 21.7566 18.8024 22.1453C19.1137 22.1944 19.4134 22.2186 19.7009 22.2186C20.7723 22.2186 21.6699 21.8807 22.3289 21.2217C22.8116 20.7391 23.1465 20.1327 23.2974 19.4684C23.3127 19.3999 23.3142 19.329 23.3014 19.26Z" fill="white"/>
<path d="M12.6889 11.1309L13.1941 10.6256L13.1946 10.6251L12.6888 11.1308L12.6889 11.1309Z" fill="#E5E5E5"/>
<path d="M18.3094 15.7405L17.7993 16.2506L17.7994 16.2507L18.3095 15.7405L18.3094 15.7405Z" fill="#E5E5E5"/>
<path d="M20.6751 21.2441C20.3877 21.2441 20.0879 21.2199 19.7766 21.1708C17.3059 20.7821 13.8675 19.5715 11.6269 17.3398L11.5964 17.3096C9.36316 15.0673 8.1527 11.629 7.76405 9.15832C7.57702 7.9696 7.74995 6.94545 8.26393 6.15514C8.06709 6.28646 7.88236 6.4371 7.71313 6.60633C6.87747 7.442 6.55808 8.66141 6.78961 10.1328C7.17826 12.6034 8.38872 16.0418 10.622 18.284L10.6525 18.3143C12.893 20.546 16.3314 21.7566 18.8022 22.1453C19.1134 22.1943 19.4132 22.2186 19.7007 22.2186C20.7721 22.2186 21.6697 21.8807 22.3287 21.2217C22.4979 21.0525 22.6485 20.8678 22.7799 20.6709C22.1964 21.0505 21.4855 21.2441 20.6751 21.2441Z" fill="#E5E5E5"/>
<path d="M16.5334 8.78442C16.2481 8.78442 16.0167 9.01577 16.0167 9.30113C16.0167 9.58649 16.2481 9.81784 16.5334 9.81784C17.6732 9.81784 18.6004 10.7451 18.6004 11.8848C18.6004 12.1663 18.8356 12.4015 19.1171 12.4015C19.3986 12.4015 19.6338 12.1663 19.6338 11.8848C19.6339 10.1752 18.243 8.78442 16.5334 8.78442Z" fill="white"/>
<path d="M16.5335 6.71747C16.3423 6.71747 16.1494 6.72806 15.96 6.74895C15.6764 6.78026 15.4718 7.03558 15.5031 7.3193C15.5344 7.60303 15.7902 7.80707 16.0734 7.77625C16.2253 7.75948 16.38 7.75094 16.5335 7.75094C18.8129 7.75094 20.6673 9.60537 20.6673 11.8848C20.6673 12.0383 20.6588 12.193 20.642 12.3449C20.6111 12.6247 20.819 12.8844 21.0989 12.9152C21.3788 12.946 21.6383 12.7382 21.6693 12.4583C21.6902 12.2689 21.7008 12.076 21.7008 11.8848C21.7008 9.03557 19.3827 6.71747 16.5335 6.71747Z" fill="white"/>
<path d="M16.5339 4.6506C16.3492 4.6506 16.1622 4.65763 15.9781 4.67161C15.6935 4.69317 15.4803 4.94141 15.5019 5.22592C15.5233 5.51049 15.7724 5.72374 16.0562 5.70218C16.2144 5.69013 16.3751 5.68408 16.5339 5.68408C19.953 5.68408 22.7347 8.46572 22.7347 11.8849C22.7347 12.3686 22.6788 12.8502 22.5688 13.3162C22.5056 13.5832 22.6701 13.8608 22.9348 13.9333C23.2134 14.0096 23.5081 13.8349 23.5745 13.5539C23.703 13.0101 23.7681 12.4486 23.7681 11.8849C23.7681 7.89586 20.5229 4.6506 16.5339 4.6506Z" fill="white"/>
</g>
<defs>
<clipPath id="clip0_10_1109">
<rect width="31" height="31" fill="white"/>
</clipPath>
</defs>
</svg>
